X:1
T:East Virginia
M:4/4
L:1/4
K:C
 F A| A3- A/2G/2| B3A/2-G/2|F/2-E/2 D2 z| z2 F G/2G/2| G4-| G D z/2 F G/2|\
 A4| z2 z/2 A/2 B| d4-| dB/2-A/2 B A/2A/2| G G z2| z G A B| A4-| A E GF/2-E/2|\
 D4-| D2|
